img/partners/netflix.svg

<svg width="119" height="33" viewBox="0 0 119 33" fill="none" xmlns="http://www.w3.org/2000/svg">
<path fill-rule="evenodd" clip-rule="evenodd" d="M13.4885 30.8219L13.4884 30.8219C12.8061 30.8918 12.1133 30.9628 11.4039 31.0502L5.71304 14.5865V31.7507C3.93464 31.9259 2.33408 32.1594 0.61496 32.4513V0.983521H5.35736L11.8189 18.8484V0.983521H16.8577V30.408C15.7443 30.5907 14.631 30.7048 13.4885 30.8219ZM30.2004 12.4827L30.2005 12.4827C31.3783 12.4542 32.5288 12.4264 33.3968 12.4264V17.3304C31.2034 17.3304 28.5951 17.3304 26.6982 17.4472V24.7449C27.6219 24.6892 28.5516 24.6276 29.4854 24.5658L29.4854 24.5658L29.4855 24.5657L29.4855 24.5657L29.4856 24.5657L29.4857 24.5657C31.4882 24.433 33.5095 24.2991 35.5309 24.2195V28.9484L21.7186 29.9993V0.983521H35.5309V5.88759H26.6982V12.5431C27.6996 12.5431 28.965 12.5125 30.2004 12.4827ZM48.8689 5.94597H54.0262C54.0262 5.94597 54.0262 0.983521 54.0855 0.983521H38.732V5.94597H43.8894V28.5981C45.4899 28.5397 47.209 28.5397 48.8689 28.5397V5.94597ZM62.1476 12.1928H68.9648V17.0969H62.1476V28.2478H57.2274V0.983521H71.1582V5.88759H62.1476V12.1928ZM84.449 24.1623C82.7347 24.063 81.0071 23.963 79.2795 23.9276V0.983521H74.3V28.5397C78.8646 28.6565 83.3106 28.89 87.7566 29.1819V24.3362C86.662 24.2904 85.5583 24.2265 84.449 24.1623ZM93.6478 29.6398L93.6481 29.6399C94.7163 29.7035 95.801 29.7681 96.8857 29.8825V0.983521H91.9654V29.5322C92.5199 29.5727 93.0816 29.6061 93.6478 29.6398ZM112.358 15.9293L118.701 0.983521H113.188L109.69 9.21536L106.43 0.983521H101.095L106.904 15.7541L100.502 30.116C101.213 30.2095 101.924 30.2842 102.636 30.3589C103.703 30.471 104.77 30.5831 105.837 30.7582L109.512 22.4096L113.069 31.5172C113.733 31.6194 114.391 31.7288 115.045 31.8379C116.261 32.0402 117.468 32.2412 118.701 32.3929L112.358 15.9293Z" fill="#8C98A4"/>
</svg>

<svg width="119" height="33" fill="none" xmlns="http://www.w3.org/2000/svg"><path fill-rule="evenodd" clip-rule="evenodd" d="M13.489 30.822c-.683.07-1.376.14-2.085.228L5.713 14.586v17.165a71.388 71.388 0 0 0-5.098.7V.984h4.742l6.462 17.864V.984h5.039v29.424c-1.114.183-2.227.297-3.37.414zM30.2 12.482c1.178-.028 2.329-.056 3.197-.056v4.904c-2.194 0-4.802 0-6.699.117v7.298c.924-.056 1.854-.117 2.787-.18 2.003-.132 4.025-.266 6.046-.346v4.73l-13.812 1.05V.984H35.53v4.904h-8.833v6.655c1.002 0 2.267-.03 3.502-.06zM48.87 5.947h5.157s0-4.962.06-4.962H38.732v4.962h5.157v22.652c1.6-.058 3.32-.058 4.98-.058V5.946zm13.279 6.247h6.817v4.904h-6.817v11.15h-4.92V.985h13.93v4.904h-9.01v6.305zm22.301 11.97c-1.714-.1-3.442-.2-5.17-.235V.984H74.3V28.54c4.565.117 9.01.35 13.457.642v-4.846c-1.095-.046-2.199-.11-3.308-.174zm9.199 5.477c1.068.063 2.153.128 3.238.242V.985h-4.92v28.548c.554.04 1.116.074 1.682.108zm18.71-13.71L118.701.983h-5.513l-3.498 8.231-3.26-8.231h-5.335l5.809 14.77-6.402 14.362c.711.093 1.422.168 2.134.243 1.067.112 2.134.224 3.201.4l3.675-8.35 3.557 9.108c.664.102 1.322.212 1.976.32 1.216.203 2.423.404 3.656.556l-6.343-16.464z" fill="#8C98A4"/></svg>
